X:1
T:Indian's Farewell
T:William Walker, 1835 E minor                         Counter by Swan, 1867
T:Transcribed from Southern Harmony , 1835 ; and from Christian Harmony, 1867.
T:Anonymous author, first published 1808                  77. 77. 77.
%%score [ 1 2 3 4 ]
L:1/8
Q:1/4=135
M:6/4
K:G
V:1 treble nm="Tr." snm="Tr."
V:2 treble nm="C." snm="A."
V:3 treble-8 nm="T." snm="T."
V:4 bass nm="B." snm="B."
V:1
"_1. When shall we all meet again?                                   Oft shall glowing hope aspire,                                    Oft shall death and sorrow reign," B4 B2 d4 e2 | %1
 d4 B2 B6 | %2
"_When shall we all meet again?                                      Oft shall wearied love retire,                                       Ere we all shall meet again." B4 d2 B4 B2 | %3
 e4 d2 B6 | e4 e2 d4 e2 | B4 B2 d6 | B4 B2 d4 B2 | B4 d2 e6 |: B4 e2 d4 d2 | B4 B2 d6 | %10
 e4 e2 d4 B2 |1 e4 d2 B6 :|2 e4 d2 B6- | B12 |] %14
V:2
"_2. Though in distant lands we sigh,                                Though the deep between us rolls,                               And in fancy’s wide domain," G4 G2 F4 G2 | %1
 A4 G2 B6 | %2
"_Parched beneath a hostile sky,                                       Friendship shall unite our souls;                                 Oft shall we all meet again." B4 A2 G4 G2 | %3
 G4 F2 G6 | B4 B2 B4 B2 | (B2 A2) G2 F6 | E4 E2 E4 F2 | G4 F2 G6 |: G4 G2 G4 F2 | G4 G2 F6 | %10
 G4 G2 G4 G2 |1 G4 F2 G6 :|2 G4 F2 G6- | G12 |] %14
V:3
"_3. When our burnished locks are gray,                           When around the youthful pine                                 Long may the loved bower remain," B4 B2 A4 G2 | %1
 F4 E2 B6 | %2
"_Thinned by many a toil-spent day,                                Moss shall creep and ivy twine:                                  Ere we all shall meet again." d4 d2 d4 ed | %3
 B4 A2 B6 | e4 B2 d4 B2 | (B2 A2) G2 A6 | G4 B2 g4 f2 | e4 d2 e6 |: g4 e2 (d2 e2) f2 | g4 B2 TA6 | %10
 B4 G2 d4 B2 |1 e4 d2 e6 :|2 e4 d2 e6- | e12 |] %14
V:4
"_4. When the dreams of life are fled.                               When in cold oblivion's shade,                                   Where immortal spirits reign," E,4 E,2 D,4 G,2 | %1
 F,4 E,2 B,,6 | %2
"_When its wasted lamps are dead,                                  Beauty, fame and wealth are laid,                               There may we all meet again." G,4 G,2 G,4 B,2 | %3
 E,4 F,2 E,6 | E,4 E,2 G,4 E,2 | E,4 G,2 D,6 | G,4 [E,B,]2 G,4 F,2 | E,4 B,,2 E,6 |: %8
 G,4 B,2 B,4 A,2 | G,4 G,2 D,6 | E,4 G,2 D,4 E,2 |1 B,,4 B,,2 E,6 :|2 B,,4 B,,2 E,6- | E,12 |] %14

